X:1
T:Non piu saette
T:Gemignano Capi Lupi da Modona
T:Source : Canzonette a tre voci di H.Vecchi et di G.Capi Lupi da Modona---Venetia---Ang.Gardano---1597. Editor : André Vierendeels (13/02/17).
T:Notes : Original clefs , C1, C1, F4 Editorial accidentals above the staff Lute accompaniment not included in this edition 
T:Non piu saette
T:©
T:©
C:Gemignano Capi Lupi da Modona
Z:©
%%score [ 1 2 3 ]
L:1/8
Q:1/4=100
M:2/2
K:F
V:1 treble nm="Soprano 1" snm="S 1"
V:2 treble nm="Soprano 2" snm="S 2"
V:3 bass nm="Bass" snm="B"
V:1
"^1)" z2 A2 c4- | c2 B2 c2 d2 | c2 c2 z2 c2 | A2 B3 B c2 | d4 d4 | z2 c4 d2 | =B4 c2 c2 | d8 | %8
w: Non piu|_ sa- et- te'al|co- re, A-|mor piac- ciat' ho-|ma- i,|di- dar|fi- ne'à miei|gua-|
w: Non piu|_ flam- mel- le'à|l'al- ma, ho-|mai ces- si l'ar-|do- r,|che tor-|men- ta'il mio|co-|
[M:2/4] c4 ::[M:2/2] z4 z2 G2 | A2 B2 c2 B2 | A2 A2 z2 A2 | B2 c2 d2 d2 | c2 BA G4 | G4 z4 | %15
w: i,|an-|cor non ti con-|ten- ti, ch'i|miei tor- men- ti|Tro- vi- no lo-|co,|
w: re,|non|ba- sta che cru-|de- le, col-|mo di fe- le,|il mio bel so-|le,|
 G2 A2 B4 | B2 B2 B2 B2 | B2 AG F2 G2 | A4 G2 F2 | G4 !fermata!A4 :| %20
w: ma che sem-|pre mi strug- g'in|fiamm'- * * * e'n|fo- * *|* co.|
w: sem- pre m'ar-|da'e gia- mai non|mi _ _ _ con-|so- * *|* le.|
V:2
"^2)""^1)" z2 F2 A4- | A2 G2 F3 G | A2 A2 z2 A2 | F2 G3 F G2 | B4 B4 | A2 A2 A4 | G3 F EC c2 | %7
w: Non piu|_ sa- et- te'al|co- re, A-|mor piac- ciat' ho-|ma- i,|di- dar fi-|ne'à _ _ _ _|
w: Non piu|_ non piu tor-|men- to, A-|mor de- pon gli|dtra- li,|co- si pron-|ti'à _ _ _ _|
 =B2 c4 B2 |[M:2/4] c4 ::[M:2/2] z2 F2 E4- | E2 D2 E2 E2 | F2 F2 G2 F2- | F2 E2 F2 F2 | C2 DF E4 | %14
w: miei gua- *|i,|an- cor|_ non ti con-|ten- ti, ch'i miei|_ tor- men- ti|Tro- vi- no lo-|
w: miei ma- *|li,|o'al- men|_ fe- ri- sci|quel- la, si cru-|* da'e bel- la,|ec- co po'il pet-|
 E4 E2 F2 | G4 G2 G2 |"^b" G2 G2 G2 FE |"^-natural" D2 E2 F2 ED | C2 D2 E2 F2- | %19
w: co, ma che|sem- pre mi|strug- g'in fiamm'- * *|* e'n fo- * *||
w: to, a tuo|stral e'à tua|fiamm' ogn' hor sog- *|get- * * * *||
 F2 E2 !fermata!F4 :| %20
w: * * co.|
w: * * to.|
V:3
"^3)""^1)" F,4 F,4- | F,2 G,2 A,2 B,2 | F,2 F,2 F,2 F,2- | F,2 _E,3 D, C,2 | B,,4 B,,4 | %5
w: Non piu|_ sa- et- te'al|co- re, A- mor|_ piac- ciat' ho-|ma- i,|
 F,2 F,2 F,4 | G,4 A,4 | G,8 |[M:2/4] C,4 ::[M:2/2] z2 F,2 C4- | C2 B,2 A,2 G,2 | %11
w: di- dar fi-|ne'à miei|gua-|i;|an- cor|_ non ti con-|
 F,2 F,2 _E,2 D,2- | D,2 C,2 B,,2 B,,2 | A,,2 G,,F,, C,4 | C,4 C,2 D,2 | _E,4 E,2 E,2 | %16
w: ten- ti, ch'i miei|_ tor- men- ti|Tro- vi- no lo-|co, ma che|sem- pre mi|
 _E,2 E,2 E,2 D,C, | B,,2 C,2 D,2 C,B,, | A,,2 B,,2 C,4- | C,4 !fermata!F,,4 :| %20
w: strug- g'in fiamm'- * *|* e'n fo- * *||* co.|

